X: 24167
T: Lorcan's Trip From Dublin To Paris
R: waltz
M: 3/4
K: Bminor
AG|:F3E AB|GE F3G|A3B cA|G3A Bc|
F3E AB|GE F3G|A3c dc|B4 Bc:|
|:d3e dc|B3A Bc|d3e fd|c3B cd|
F3E F/G/A|GE F3G|A3c dc|B4 Bc:|
|:f3d cd|e3d cd|B3A Bc|dc Bc de|
f3d cd|e3d cd|B3A dc|1 B3c de|2 (B4 B)2:|

